X:520
T:De los alamos vengo
Z:Jack Campin, http://www.campin.me.uk/
F:Jack Campin's Nine-Note Tunebook
% last edit 03-02-2013
G:16th century Spanish
M:2/4
L:1/8
Q:1/4=120
K:F
z2 AB|c2 cB |A2 F2|GA- AG|A2
   AB|cc c>B|A2 FF|G4    |F4 |
z2 AB|c2 cB |A2 F2|GA- AG|A2
   AB|cc c>B|A2 FF|G4    |F2
   AB|cc c>B|A2 FF|G4    |F4 |
z2 AB|c2 cB |A2 F2|G4    |F2
   AB|c2 cB |A2 F2|GA- AG|F2
   AB|cc c>B|A2 FF|G4    |F4 |
z2 AB|c2 cB |A2 F2|GA- AG|A2
   AB|cc c>B|A2 FF|G4    |F2
   AB|cc c>B|A2 FF|G4    |F4-|F4|]

